X:89
T: A citrusfa levelestől ágastól...
M: 4/4
L: 1/4
K: Eb
g2g2 | g e c2 | 
f2 e g/e/ | d d d2 | 
=B c d e | f/e/d/c/ | =B A F2 | 
f/e/d/c/ =B/B/c/A/ | G<G G2 | 
 
